v3/src/assets/plugins/plugin-nasa-earth-air-and-water-icon.svg

<?xml version="1.0" encoding="UTF-8"?>
<svg width="24px" height="24px" viewBox="0 0 24 24" version="1.1" xmlns="http://www.w3.org/2000/svg" xmlns:xlink="http://www.w3.org/1999/xlink">
    <title>57C3095B-B875-4A83-A13B-FBBFFF24B354</title>
    <g id="Plugin-NASA-Earth-Air-and-Water-ICON" stroke="none" fill="none" fill-rule="nonzero">
        <rect id="Rectangle" x="0" y="0" width="24" height="24"></rect>
        <path d="M3.93204017,12.13239 C4.3273211,12.692994 4.81807271,13.1814539 5.38064509,13.5741197 L3.28138323,15.6733065 L1.84914045,14.215488 L3.93204017,12.13239 Z M2.94765962,7.7273846 C2.89003931,8.0579348 2.86,8.39795937 2.86,8.745 C2.86,9.09552497 2.89064554,9.43889229 2.94940351,9.77256886 L0,9.77272727 L0,7.72727273 L2.94765962,7.7273846 Z M12.1506155,3.94494265 L14.216265,1.82429974 L15.6508596,3.28451202 L13.5658115,5.36877296 C13.1788479,4.81726097 12.6996482,4.3351832 12.1506155,3.94494265 Z M3.28451202,1.84914045 L5.36369655,3.92775432 C4.81227271,4.31552183 4.33043721,4.79556982 3.94063434,5.34545401 L1.82427832,3.28375601 L3.28451202,1.84914045 Z M9.77272727,0 L9.77256886,2.94940351 C9.43889229,2.89064554 9.09552497,2.86 8.745,2.86 C8.39795937,2.86 8.0579348,2.89003931 7.7273846,2.94765962 L7.72727273,0 L9.77272727,0 Z" id="Shape" fill="#006C8E"></path>
        <path d="M8.745,3.86 C10.5591629,3.86 12.1423497,4.84892592 12.9848904,6.31710767 C12.5500598,6.4296814 12.1255175,6.57632338 11.7112113,6.75509936 C10.5863184,7.24049836 9.59508335,7.90820593 8.75164464,8.75164464 C7.90820593,9.59508335 7.24049836,10.5863184 6.75509936,11.7112113 C6.57632338,12.1255175 6.4296814,12.5500598 6.31521344,12.9839275 C4.84892592,12.1423497 3.86,10.5591629 3.86,8.745 C3.86,6.047089 6.047089,3.86 8.745,3.86 Z" id="Path" fill="#006C8E"></path>
        <path d="M8.745,5.86 C9.70696638,5.86 10.5589682,6.33081442 11.0831453,7.05458326 C10.2129632,7.50204276 9.4339449,8.06934438 8.75164464,8.75164464 C8.06934438,9.4339449 7.50204276,10.2129632 7.05322175,11.0812151 C6.33081442,10.5589682 5.86,9.70696638 5.86,8.745 C5.86,7.1516585 7.1516585,5.86 8.745,5.86 Z" id="Path" fill="#F7F700"></path>
        <path d="M15.38,7.76 C16.4325499,7.76 17.4259627,7.96081151 18.3554473,8.36189049 C19.278974,8.76039856 20.0852541,9.30341712 20.7709185,9.98908151 C21.4565829,10.6747459 21.9996014,11.481026 22.3981095,12.4045527 C22.7991885,13.3340373 23,14.3274501 23,15.38 C23,16.4325499 22.7991885,17.4259627 22.3981095,18.3554473 C21.9996014,19.278974 21.4565829,20.0852541 20.7709185,20.7709185 C20.0852541,21.4565829 19.278974,21.9996014 18.3554473,22.3981095 C17.4259627,22.7991885 16.4325499,23 15.38,23 C14.3274501,23 13.3340373,22.7991885 12.4045527,22.3981095 C11.481026,21.9996014 10.6747459,21.4565829 9.98908151,20.7709185 C9.30341712,20.0852541 8.76039856,19.278974 8.36189049,18.3554473 C7.96081151,17.4259627 7.76,16.4325499 7.76,15.38 C7.76,14.3274501 7.96081151,13.3340373 8.36189049,12.4045527 C8.76039856,11.481026 9.30341712,10.6747459 9.98908151,9.98908151 C10.6747459,9.30341712 11.481026,8.76039856 12.4045527,8.36189049 C13.3340373,7.96081151 14.3274501,7.76 15.38,7.76 Z" id="Path" fill="#006C8E"></path>
        <path d="M14.676875,20.9698438 L14.676875,19.59875 C14.2901563,19.59875 13.9591016,19.4610547 13.6837109,19.1856641 C13.4083203,18.9102734 13.270625,18.5792187 13.270625,18.1925 L13.270625,17.489375 L9.895625,14.114375 C9.86046875,14.3253125 9.82824219,14.53625 9.79894531,14.7471875 C9.76964844,14.958125 9.755,15.1690625 9.755,15.38 C9.755,16.7979688 10.2208203,18.0401563 11.1524609,19.1065625 C12.0841016,20.1729688 13.2589063,20.7940625 14.676875,20.9698438 Z M19.5284375,19.176875 C20.0089063,18.6495313 20.3751172,18.0606641 20.6270703,17.4102734 C20.8790234,16.7598828 21.005,16.083125 21.005,15.38 C21.005,14.2315625 20.6856641,13.1827344 20.0469922,12.2335156 C19.4083203,11.2842969 18.5557813,10.59875 17.489375,10.176875 L17.489375,10.458125 C17.489375,10.8448438 17.3516797,11.1758984 17.0762891,11.4512891 C16.8008984,11.7266797 16.4698438,11.864375 16.083125,11.864375 L14.676875,11.864375 L14.676875,13.270625 C14.676875,13.4698438 14.6094922,13.6368359 14.4747266,13.7716016 C14.3399609,13.9063672 14.1729688,13.97375 13.97375,13.97375 L12.5675,13.97375 L12.5675,15.38 L16.78625,15.38 C16.9854688,15.38 17.1524609,15.4473828 17.2872266,15.5821484 C17.4219922,15.7169141 17.489375,15.8839062 17.489375,16.083125 L17.489375,18.1925 L18.1925,18.1925 C18.4971875,18.1925 18.7725781,18.2833203 19.0186719,18.4649609 C19.2647656,18.6466016 19.4346875,18.8839063 19.5284375,19.176875 Z" id="Shape" fill="#D3F4FF"></path>
    </g>
</svg>

<svg viewBox="0 0 24 24" xmlns="http://www.w3.org/2000/svg">
    <g fill="none">
        <path d="M0 0h24v24H0z"/>
        <path d="M3.932 12.132c.395.561.886 1.05 1.449 1.442l-2.1 2.1-1.432-1.459 2.083-2.083zm-.984-4.405a5.922 5.922 0 0 0 .001 2.046H0V7.727h2.948zm9.203-3.782 2.065-2.12 1.435 1.46-2.085 2.084a5.918 5.918 0 0 0-1.415-1.424zM3.285 1.849l2.079 2.079A5.918 5.918 0 0 0 3.94 5.345L1.824 3.284l1.46-1.435zM9.773 0v2.95a5.922 5.922 0 0 0-2.046-.002V0h2.046zM8.745 3.86c1.814 0 3.397.989 4.24 2.457a9.438 9.438 0 0 0-4.233 2.435 9.438 9.438 0 0 0-2.437 4.232 4.885 4.885 0 0 1 2.43-9.124z" fill="#006C8E"/>
        <path d="M8.745 5.86c.962 0 1.814.47 2.338 1.195a9.283 9.283 0 0 0-4.03 4.026A2.885 2.885 0 0 1 8.745 5.86z" fill="#F7F700"/>
        <path d="M15.38 7.76c1.053 0 2.046.2 2.975.602.924.398 1.73.941 2.416 1.627a7.689 7.689 0 0 1 1.627 2.416c.401.929.602 1.922.602 2.975 0 1.053-.2 2.046-.602 2.975a7.689 7.689 0 0 1-1.627 2.416 7.689 7.689 0 0 1-2.416 1.627A7.435 7.435 0 0 1 15.38 23c-1.053 0-2.046-.2-2.975-.602a7.689 7.689 0 0 1-2.416-1.627 7.689 7.689 0 0 1-1.627-2.416 7.435 7.435 0 0 1-.602-2.975c0-1.053.2-2.046.602-2.975a7.689 7.689 0 0 1 1.627-2.416 7.689 7.689 0 0 1 2.416-1.627 7.435 7.435 0 0 1 2.975-.602z" fill="#006C8E"/>
        <path d="M14.677 20.97v-1.371c-.387 0-.718-.138-.993-.413a1.354 1.354 0 0 1-.413-.994v-.703l-3.375-3.375c-.036.211-.068.422-.097.633a5.49 5.49 0 0 0 1.354 4.36c.931 1.066 2.106 1.687 3.524 1.863zm4.851-1.793a5.618 5.618 0 0 0 1.477-3.797c0-1.148-.32-2.197-.958-3.146a5.415 5.415 0 0 0-2.558-2.057v.281c0 .387-.137.718-.413.993a1.354 1.354 0 0 1-.993.413h-1.406v1.407a.68.68 0 0 1-.202.5.68.68 0 0 1-.501.203h-1.406v1.406h4.218c.2 0 .366.067.501.202a.68.68 0 0 1 .202.501v2.11h.703c.305 0 .58.09.827.272.246.182.416.419.51.712z" fill="#D3F4FF"/>
    </g>
</svg>
